assets/logos/parabola.svg

<svg class="typst-doc" viewBox="0 0 123.5464566929134 125.6584566929134" width="123.5464566929134pt" height="125.6584566929134pt" xmlns="http://www.w3.org/2000/svg" xmlns:xlink="http://www.w3.org/1999/xlink" xmlns:h5="http://www.w3.org/1999/xhtml">
    <path class="typst-shape" fill="#ffffff" fill-rule="nonzero" d="M 0 0v 125.658455 h 123.546455 v -125.658455 Z "/>
    <g>
        <g class="typst-group" transform="matrix(1 0 0 1 14.173228346456693 14.173228346456693)">
            <g>
                <path class="typst-shape" fill="#000000" fill-rule="nonzero" d="M 0 0m 0 5 c 0 -2.7614238 2.2385762 -5 5 -5 h 85.2 c 2.7614288 0 5 2.2385762 5 5 v 87.312 c 0 2.7614288 -2.2385712 5 -5 5 h -85.2 c -2.7614238 0 -5 -2.2385712 -5 -5 Z "/>
                <g class="typst-group" transform="matrix(1 0 0 1 8 19.616)">
                    <g/>
                </g>
                <g class="typst-group" transform="matrix(1 0 0 1 8 19.616)">
                    <g/>
                </g>
                <g class="typst-group" transform="matrix(1 0 0 1 8 8)">
                    <g>
                        <g class="typst-text" transform="matrix(1 0 0 -1 0 8.976000000000003)">
                            <use xlink:href="#g363496F2D5142F8F4982DAF4CE1D3779" x="15.84" y="0" fill="#ff00ff" fill-rule="nonzero"/>
                            <use xlink:href="#g363496F2D5142F8F4982DAF4CE1D3779" x="31.680000000000003" y="0" fill="#ff00ff" fill-rule="nonzero"/>
                            <use xlink:href="#g363496F2D5142F8F4982DAF4CE1D3779" x="47.52" y="0" fill="#ff00ff" fill-rule="nonzero"/>
                            <use xlink:href="#gB3CB5C71C376FEAC35A5CE3E9D70B056" x="63.36000000000001" y="0" fill="#ff00ff" fill-rule="nonzero"/>
                        </g>
                    </g>
                </g>
                <g class="typst-group" transform="matrix(1 0 0 1 87.20000000000002 8)">
                    <g/>
                </g>
                <g class="typst-group" transform="matrix(1 0 0 1 8 31.232000000000003)">
                    <g/>
                </g>
                <g class="typst-group" transform="matrix(1 0 0 1 8 31.232000000000003)">
                    <g/>
                </g>
                <g class="typst-group" transform="matrix(1 0 0 1 8 31.232000000000003)">
                    <g/>
                </g>
                <g class="typst-group" transform="matrix(1 0 0 1 8 19.616)">
                    <g>
                        <g class="typst-text" transform="matrix(1 0 0 -1 0 8.976000000000003)">
                            <use xlink:href="#gEB20B197638B23C20845973F58CB19AC" x="0" y="0" fill="#ff00ff" fill-rule="nonzero"/>
                            <use xlink:href="#gF9D31F08CF713FA33A044CE9199C2BD0" x="5.28" y="0" fill="#ff00ff" fill-rule="nonzero"/>
                            <use xlink:href="#gB3CB5C71C376FEAC35A5CE3E9D70B056" x="10.56" y="0" fill="#ff00ff" fill-rule="nonzero"/>
                            <use xlink:href="#g411C4DD6819AEB24427ECE171647BDC0" x="21.12" y="0" fill="#ff00ff" fill-rule="nonzero"/>
                            <use xlink:href="#gB3CB5C71C376FEAC35A5CE3E9D70B056" x="26.400000000000002" y="0" fill="#ff00ff" fill-rule="nonzero"/>
                            <use xlink:href="#g411C4DD6819AEB24427ECE171647BDC0" x="36.96" y="0" fill="#ff00ff" fill-rule="nonzero"/>
                            <use xlink:href="#gB3CB5C71C376FEAC35A5CE3E9D70B056" x="42.24" y="0" fill="#ff00ff" fill-rule="nonzero"/>
                            <use xlink:href="#g4EE50823DE1072B888352BF5ED93E90B" x="47.52" y="0" fill="#ff00ff" fill-rule="nonzero"/>
                            <use xlink:href="#g4EE50823DE1072B888352BF5ED93E90B" x="58.080000000000005" y="0" fill="#ff00ff" fill-rule="nonzero"/>
                            <use xlink:href="#gF9D31F08CF713FA33A044CE9199C2BD0" x="68.64" y="0" fill="#ff00ff" fill-rule="nonzero"/>
                            <use xlink:href="#gEB20B197638B23C20845973F58CB19AC" x="73.92" y="0" fill="#ff00ff" fill-rule="nonzero"/>
                        </g>
                    </g>
                </g>
                <g class="typst-group" transform="matrix(1 0 0 1 87.20000000000002 19.616)">
                    <g/>
                </g>
                <g class="typst-group" transform="matrix(1 0 0 1 8 42.848000000000006)">
                    <g/>
                </g>
                <g class="typst-group" transform="matrix(1 0 0 1 8 42.848000000000006)">
                    <g/>
                </g>
                <g class="typst-group" transform="matrix(1 0 0 1 8 42.848000000000006)">
                    <g/>
                </g>
                <g class="typst-group" transform="matrix(1 0 0 1 8 31.232000000000003)">
                    <g>
                        <g class="typst-text" transform="matrix(1 0 0 -1 0 8.976000000000003)">
                            <use xlink:href="#g4EE50823DE1072B888352BF5ED93E90B" x="52.800000000000004" y="0" fill="#ff00ff" fill-rule="nonzero"/>
                            <use xlink:href="#gEB20B197638B23C20845973F58CB19AC" x="68.64" y="0" fill="#ff00ff" fill-rule="nonzero"/>
                            <use xlink:href="#gF9D31F08CF713FA33A044CE9199C2BD0" x="73.92" y="0" fill="#ff00ff" fill-rule="nonzero"/>
                        </g>
                    </g>
                </g>
                <g class="typst-group" transform="matrix(1 0 0 1 87.20000000000002 31.232000000000003)">
                    <g/>
                </g>
                <g class="typst-group" transform="matrix(1 0 0 1 8 54.464000000000006)">
                    <g/>
                </g>
                <g class="typst-group" transform="matrix(1 0 0 1 8 54.464000000000006)">
                    <g/>
                </g>
                <g class="typst-group" transform="matrix(1 0 0 1 8 54.464000000000006)">
                    <g/>
                </g>
                <g class="typst-group" transform="matrix(1 0 0 1 8 42.848000000000006)">
                    <g>
                        <g class="typst-text" transform="matrix(1 0 0 -1 0 8.976000000000003)">
                            <use xlink:href="#g4EE50823DE1072B888352BF5ED93E90B" x="47.52" y="0" fill="#ff00ff" fill-rule="nonzero"/>
                            <use xlink:href="#gEB20B197638B23C20845973F58CB19AC" x="58.080000000000005" y="0" fill="#ff00ff" fill-rule="nonzero"/>
                            <use xlink:href="#gF9D31F08CF713FA33A044CE9199C2BD0" x="63.36000000000001" y="0" fill="#ff00ff" fill-rule="nonzero"/>
                        </g>
                    </g>
                </g>
                <g class="typst-group" transform="matrix(1 0 0 1 87.20000000000002 42.848000000000006)">
                    <g/>
                </g>
                <g class="typst-group" transform="matrix(1 0 0 1 8 66.08)">
                    <g/>
                </g>
                <g class="typst-group" transform="matrix(1 0 0 1 8 66.08)">
                    <g/>
                </g>
                <g class="typst-group" transform="matrix(1 0 0 1 8 66.08)">
                    <g/>
                </g>
                <g class="typst-group" transform="matrix(1 0 0 1 8 54.464000000000006)">
                    <g>
                        <g class="typst-text" transform="matrix(1 0 0 -1 0 8.976000000000003)">
                            <use xlink:href="#g4EE50823DE1072B888352BF5ED93E90B" x="42.24" y="0" fill="#ff00ff" fill-rule="nonzero"/>
                            <use xlink:href="#gEB20B197638B23C20845973F58CB19AC" x="47.52" y="0" fill="#ff00ff" fill-rule="nonzero"/>
                            <use xlink:href="#gF9D31F08CF713FA33A044CE9199C2BD0" x="52.800000000000004" y="0" fill="#ff00ff" fill-rule="nonzero"/>
                        </g>
                    </g>
                </g>
                <g class="typst-group" transform="matrix(1 0 0 1 87.20000000000002 54.464000000000006)">
                    <g/>
                </g>
                <g class="typst-group" transform="matrix(1 0 0 1 8 77.69600000000001)">
                    <g/>
                </g>
                <g class="typst-group" transform="matrix(1 0 0 1 8 77.69600000000001)">
                    <g/>
                </g>
                <g class="typst-group" transform="matrix(1 0 0 1 8 77.69600000000001)">
                    <g/>
                </g>
                <g class="typst-group" transform="matrix(1 0 0 1 8 66.08)">
                    <g>
                        <g class="typst-text" transform="matrix(1 0 0 -1 0 8.976000000000003)">
                            <use xlink:href="#g4EE50823DE1072B888352BF5ED93E90B" x="36.96" y="0" fill="#ff00ff" fill-rule="nonzero"/>
                            <use xlink:href="#gF9D31F08CF713FA33A044CE9199C2BD0" x="42.24" y="0" fill="#ff00ff" fill-rule="nonzero"/>
                        </g>
                    </g>
                </g>
                <g class="typst-group" transform="matrix(1 0 0 1 87.20000000000002 66.08)">
                    <g/>
                </g>
                <g class="typst-group" transform="matrix(1 0 0 1 8 77.69600000000001)">
                    <g/>
                </g>
                <g class="typst-group" transform="matrix(1 0 0 1 8 89.31200000000001)">
                    <g/>
                </g>
            </g>
        </g>
    </g>
    <defs id="glyph">
        <symbol id="g363496F2D5142F8F4982DAF4CE1D3779" overflow="visible">
            <path d="M 0 0m -4.752 -1.2144 v 0.9944 h 9.504 v -0.9944 h -9.504 Z "/>
        </symbol>
        <symbol id="gB3CB5C71C376FEAC35A5CE3E9D70B056" overflow="visible">
            <path d="M 0 0m 0.528 -1.2144 v 0.9944 h 4.224 v -0.9944 h -4.224 Z "/>
        </symbol>
        <symbol id="gEB20B197638B23C20845973F58CB19AC" overflow="visible">
            <path d="M 0 0m 2.6399999 -0.088 q -0.36959982 0 -0.59399986 0.2244 q -0.22440004 0.2244 -0.22440004 0.5852 q 0 0.36079997 0.22440004 0.5896 q 0.22440004 0.22879994 0.59399986 0.22879994 q 0.36960006 0 0.5940001 -0.22879994 q 0.22440004 -0.22880006 0.22440004 -0.5896 q 0 -0.3608 -0.22440004 -0.5852 q -0.22440004 -0.2244 -0.5940001 -0.2244 Z "/>
        </symbol>
        <symbol id="gF9D31F08CF713FA33A044CE9199C2BD0" overflow="visible">
            <path d="M 0 0m 2.2792 5.676 l -1.0208001 1.2319999 h 1.2144 l 0.9416001 -1.2319999 h -1.1352 Z "/>
        </symbol>
        <symbol id="g411C4DD6819AEB24427ECE171647BDC0" overflow="visible">
            <path d="M 0 0m -0.132 -0.968 l 3.08 8.272 h 1.144 l -3.08 -8.272 h -1.1439999 Z m -3.96 0 l 3.08 8.272 h 1.1439999 l -3.08 -8.272 h -1.144 Z "/>
        </symbol>
        <symbol id="g4EE50823DE1072B888352BF5ED93E90B" overflow="visible">
            <path d="M 0 0m 0.528 -0.968 l 3.08 8.272 h 1.1439998 l -3.08 -8.272 h -1.1439999 Z "/>
        </symbol>
    </defs>
</svg>

<svg class="typst-doc" viewBox="0 0 123.54649999999998 125.6585" width="123.54649999999998" height="125.6585" xmlns="http://www.w3.org/2000/svg" xmlns:xlink="http://www.w3.org/1999/xlink" xmlns:h5="http://www.w3.org/1999/xhtml">
    <g>
        <g transform="translate(14.17325 14.17325)">
            <g class="typst-group">
                <g>
                    <g transform="translate(-0 -0)">
                        <path class="typst-shape" fill="#000000" d="M 0 5 C 0 2.2385762 2.2385762 0 5 0 L 90.2 0 C 92.961426 0 95.2 2.2385762 95.2 5 L 95.2 92.312 C 95.2 95.073425 92.961426 97.312 90.2 97.312 L 5 97.312 C 2.2385762 97.312 0 95.073425 0 92.312 Z "/>
                    </g>
                    <g transform="translate(8 19.616)">
                        <g class="typst-group">
                            <g/>
                        </g>
                    </g>
                    <g transform="translate(8 19.616)">
                        <g class="typst-group">
                            <g/>
                        </g>
                    </g>
                    <g transform="translate(8 8)">
                        <g class="typst-group">
                            <g>
                                <g transform="translate(0 8.976)">
                                    <g class="typst-text" transform="scale(1, -1)">
                                        <use xlink:href="#gC6C8A06ACA3F2258CFC932E1F8DC0306" x="15.84" fill="#ff00ff"/>
                                        <use xlink:href="#gC6C8A06ACA3F2258CFC932E1F8DC0306" x="31.680000000000003" fill="#ff00ff"/>
                                        <use xlink:href="#gC6C8A06ACA3F2258CFC932E1F8DC0306" x="47.52" fill="#ff00ff"/>
                                        <use xlink:href="#g45C544E5050795A0DB9B642A0F86EEF6" x="63.36000000000001" fill="#ff00ff"/>
                                    </g>
                                </g>
                            </g>
                        </g>
                    </g>
                    <g transform="translate(87.19999999999999 8)">
                        <g class="typst-group">
                            <g/>
                        </g>
                    </g>
                    <g transform="translate(8 31.232000000000003)">
                        <g class="typst-group">
                            <g/>
                        </g>
                    </g>
                    <g transform="translate(8 31.232000000000003)">
                        <g class="typst-group">
                            <g/>
                        </g>
                    </g>
                    <g transform="translate(8 31.232000000000003)">
                        <g class="typst-group">
                            <g/>
                        </g>
                    </g>
                    <g transform="translate(8 19.616)">
                        <g class="typst-group">
                            <g>
                                <g transform="translate(0 8.976)">
                                    <g class="typst-text" transform="scale(1, -1)">
                                        <use xlink:href="#g57025DAD0FEDA5EF754FB8ABC27D245D" x="0" fill="#ff00ff"/>
                                        <use xlink:href="#gBC852F94A0F483E722D5840709B019EA" x="5.28" fill="#ff00ff"/>
                                        <use xlink:href="#g45C544E5050795A0DB9B642A0F86EEF6" x="10.56" fill="#ff00ff"/>
                                        <use xlink:href="#gBC6B3F51D2ED73427D2CA820E24598D0" x="21.12" fill="#ff00ff"/>
                                        <use xlink:href="#g45C544E5050795A0DB9B642A0F86EEF6" x="26.400000000000002" fill="#ff00ff"/>
                                        <use xlink:href="#gBC6B3F51D2ED73427D2CA820E24598D0" x="36.96" fill="#ff00ff"/>
                                        <use xlink:href="#g45C544E5050795A0DB9B642A0F86EEF6" x="42.24" fill="#ff00ff"/>
                                        <use xlink:href="#gEA462781DB655E9FC41D13FE877043C1" x="47.52" fill="#ff00ff"/>
                                        <use xlink:href="#gEA462781DB655E9FC41D13FE877043C1" x="58.080000000000005" fill="#ff00ff"/>
                                        <use xlink:href="#gBC852F94A0F483E722D5840709B019EA" x="68.64" fill="#ff00ff"/>
                                        <use xlink:href="#g57025DAD0FEDA5EF754FB8ABC27D245D" x="73.92" fill="#ff00ff"/>
                                    </g>
                                </g>
                            </g>
                        </g>
                    </g>
                    <g transform="translate(87.19999999999999 19.616)">
                        <g class="typst-group">
                            <g/>
                        </g>
                    </g>
                    <g transform="translate(8 42.848000000000006)">
                        <g class="typst-group">
                            <g/>
                        </g>
                    </g>
                    <g transform="translate(8 42.848000000000006)">
                        <g class="typst-group">
                            <g/>
                        </g>
                    </g>
                    <g transform="translate(8 42.848000000000006)">
                        <g class="typst-group">
                            <g/>
                        </g>
                    </g>
                    <g transform="translate(8 31.232000000000003)">
                        <g class="typst-group">
                            <g>
                                <g transform="translate(0 8.976)">
                                    <g class="typst-text" transform="scale(1, -1)">
                                        <use xlink:href="#gEA462781DB655E9FC41D13FE877043C1" x="52.800000000000004" fill="#ff00ff"/>
                                        <use xlink:href="#g57025DAD0FEDA5EF754FB8ABC27D245D" x="68.64" fill="#ff00ff"/>
                                        <use xlink:href="#gBC852F94A0F483E722D5840709B019EA" x="73.92" fill="#ff00ff"/>
                                    </g>
                                </g>
                            </g>
                        </g>
                    </g>
                    <g transform="translate(87.19999999999999 31.232000000000003)">
                        <g class="typst-group">
                            <g/>
                        </g>
                    </g>
                    <g transform="translate(8 54.464000000000006)">
                        <g class="typst-group">
                            <g/>
                        </g>
                    </g>
                    <g transform="translate(8 54.464000000000006)">
                        <g class="typst-group">
                            <g/>
                        </g>
                    </g>
                    <g transform="translate(8 54.464000000000006)">
                        <g class="typst-group">
                            <g/>
                        </g>
                    </g>
                    <g transform="translate(8 42.848000000000006)">
                        <g class="typst-group">
                            <g>
                                <g transform="translate(0 8.976)">
                                    <g class="typst-text" transform="scale(1, -1)">
                                        <use xlink:href="#gEA462781DB655E9FC41D13FE877043C1" x="47.52" fill="#ff00ff"/>
                                        <use xlink:href="#g57025DAD0FEDA5EF754FB8ABC27D245D" x="58.080000000000005" fill="#ff00ff"/>
                                        <use xlink:href="#gBC852F94A0F483E722D5840709B019EA" x="63.36000000000001" fill="#ff00ff"/>
                                    </g>
                                </g>
                            </g>
                        </g>
                    </g>
                    <g transform="translate(87.19999999999999 42.848000000000006)">
                        <g class="typst-group">
                            <g/>
                        </g>
                    </g>
                    <g transform="translate(8 66.08000000000001)">
                        <g class="typst-group">
                            <g/>
                        </g>
                    </g>
                    <g transform="translate(8 66.08000000000001)">
                        <g class="typst-group">
                            <g/>
                        </g>
                    </g>
                    <g transform="translate(8 66.08000000000001)">
                        <g class="typst-group">
                            <g/>
                        </g>
                    </g>
                    <g transform="translate(8 54.464000000000006)">
                        <g class="typst-group">
                            <g>
                                <g transform="translate(0 8.976)">
                                    <g class="typst-text" transform="scale(1, -1)">
                                        <use xlink:href="#gEA462781DB655E9FC41D13FE877043C1" x="42.24" fill="#ff00ff"/>
                                        <use xlink:href="#g57025DAD0FEDA5EF754FB8ABC27D245D" x="47.52" fill="#ff00ff"/>
                                        <use xlink:href="#gBC852F94A0F483E722D5840709B019EA" x="52.800000000000004" fill="#ff00ff"/>
                                    </g>
                                </g>
                            </g>
                        </g>
                    </g>
                    <g transform="translate(87.19999999999999 54.464000000000006)">
                        <g class="typst-group">
                            <g/>
                        </g>
                    </g>
                    <g transform="translate(8 77.69600000000001)">
                        <g class="typst-group">
                            <g/>
                        </g>
                    </g>
                    <g transform="translate(8 77.69600000000001)">
                        <g class="typst-group">
                            <g/>
                        </g>
                    </g>
                    <g transform="translate(8 77.69600000000001)">
                        <g class="typst-group">
                            <g/>
                        </g>
                    </g>
                    <g transform="translate(8 66.08000000000001)">
                        <g class="typst-group">
                            <g>
                                <g transform="translate(0 8.976)">
                                    <g class="typst-text" transform="scale(1, -1)">
                                        <use xlink:href="#gEA462781DB655E9FC41D13FE877043C1" x="36.96" fill="#ff00ff"/>
                                        <use xlink:href="#gBC852F94A0F483E722D5840709B019EA" x="42.24" fill="#ff00ff"/>
                                    </g>
                                </g>
                            </g>
                        </g>
                    </g>
                    <g transform="translate(87.19999999999999 66.08000000000001)">
                        <g class="typst-group">
                            <g/>
                        </g>
                    </g>
                    <g transform="translate(8 77.69600000000001)">
                        <g class="typst-group">
                            <g/>
                        </g>
                    </g>
                    <g transform="translate(8 89.31200000000001)">
                        <g class="typst-group">
                            <g/>
                        </g>
                    </g>
                </g>
            </g>
        </g>
    </g>
    <defs id="glyph">
        <symbol id="gC6C8A06ACA3F2258CFC932E1F8DC0306" overflow="visible">
            <path d="M -4.752 -1.2144 L -4.752 -0.22 L 4.752 -0.22 L 4.752 -1.2144 L -4.752 -1.2144 Z "/>
        </symbol>
        <symbol id="g45C544E5050795A0DB9B642A0F86EEF6" overflow="visible">
            <path d="M 0.528 -1.2144 L 0.528 -0.22 L 4.752 -0.22 L 4.752 -1.2144 L 0.528 -1.2144 Z "/>
        </symbol>
        <symbol id="g57025DAD0FEDA5EF754FB8ABC27D245D" overflow="visible">
            <path d="M 2.6399999 -0.088 Q 2.2704 -0.088 2.046 0.1364 Q 1.8216 0.3608 1.8216 0.7216 Q 1.8216 1.0824 2.046 1.3112 Q 2.2704 1.54 2.6399999 1.54 Q 3.0096 1.54 3.234 1.3112 Q 3.4584 1.0824 3.4584 0.7216 Q 3.4584 0.3608 3.234 0.1364 Q 3.0096 -0.088 2.6399999 -0.088 Z "/>
        </symbol>
        <symbol id="gBC852F94A0F483E722D5840709B019EA" overflow="visible">
            <path d="M 2.2792 5.676 L 1.2584 6.908 L 2.4728 6.908 L 3.4144 5.676 L 2.2792 5.676 Z "/>
        </symbol>
        <symbol id="gBC6B3F51D2ED73427D2CA820E24598D0" overflow="visible">
            <path d="M -0.132 -0.968 L 2.948 7.304 L 4.092 7.304 L 1.012 -0.968 L -0.132 -0.968 Z M -4.092 -0.968 L -1.012 7.304 L 0.132 7.304 L -2.948 -0.968 L -4.092 -0.968 Z "/>
        </symbol>
        <symbol id="gEA462781DB655E9FC41D13FE877043C1" overflow="visible">
            <path d="M 0.528 -0.968 L 3.608 7.304 L 4.752 7.304 L 1.6719999 -0.968 L 0.528 -0.968 Z "/>
        </symbol>
    </defs>
</svg>
